UI/Discovery-Sharing/SVG/maps-download_outline_24px.svg

<svg width="24" height="24" viewBox="0 0 24 24" fill="none" xmlns="http://www.w3.org/2000/svg">
<path d="M20 2H4C3.46957 2 2.96086 2.21071 2.58579 2.58579C2.21071 2.96086 2 3.46957 2 4V20C2 20.5304 2.21071 21.0391 2.58579 21.4142C2.96086 21.7893 3.46957 22 4 22H12V20H11.79L12 19.79V16.94L8.94 20H4V15.06L7.08 12L5.66 10.55L4 12.21V6.77L12 14.77V11.92L4.07 4H12.21L9.21 7L10.63 8.43L14.22 4.83L19.16 9.78L18.95 9.99H22V4C22 3.46957 21.7893 2.96086 21.4142 2.58579C21.0391 2.21071 20.5304 2 20 2ZM20 7.79L16.21 4H20V7.79ZM13.44 9.85L13.59 10H16.44L14.86 8.43L13.44 9.85Z" fill="#0F1621"/>
<path fill-rule="evenodd" clip-rule="evenodd" d="M22 18L17.98 22L14 18L15.24 16.76L17 18.5V12H19V18.5L20.76 16.76L22 18Z" fill="#0F1621"/>
</svg>

<svg xmlns="http://www.w3.org/2000/svg" width="24" height="24" viewBox="0 0 24 24"><rect width="24" height="24" style="fill:none"/><path d="M20,2H4A2,2,0,0,0,2,4V20a2,2,0,0,0,2,2h8V20h-.21l.21-.21V16.94L8.94,20H4V15.06L7.08,12,5.66,10.55,4,12.21V6.77l8,8V11.92L4.07,4h8.14l-3,3,1.42,1.43,3.59-3.6,4.94,4.95-.21.21H22V4A2,2,0,0,0,20,2Zm0,5.79L16.21,4H20ZM13.44,9.85l.15.15h2.85L14.86,8.43Z"/><polygon points="22 18 17.98 22 14 18 15.24 16.76 17 18.5 17 12 19 12 19 18.5 20.76 16.76 22 18" style="fill-rule:evenodd"/></svg>
